app/dist/common/images/s-and-u-plc.svg

<svg fill="none" height="18" viewBox="0 0 18 18" width="18" xmlns="http://www.w3.org/2000/svg"><path d="m0 0h18v18h-18z" fill="#f0f3fa"/><g clip-rule="evenodd" fill-rule="evenodd"><path d="m5.4946 6h7.0108c1.372 0 2.4946 1.34683 2.4946 2.99277 0 1.64593-1.1227 2.99283-2.4946 2.99283h-7.0108c-1.37194 0-2.4946-1.3467-2.4946-2.99274 0-1.64603 1.12257-2.99286 2.4946-2.99286z" fill="#32609b"/><path d="m5.5 6c1.38073 0 2.5 1.34311 2.5 3 0 1.6569-1.11927 3-2.5 3s-2.5-1.3431-2.5-3c0-1.65689 1.11927-3 2.5-3z" fill="#279857"/><path d="m12 7h.5v2.69915c0 .44045.1558.80085.4921.80085h.0158c.3363 0 .4921-.3604.4921-.80085v-2.69915h.5v2.70695c0 .71115-.4443 1.29305-.9873 1.29305h-.0254c-.543 0-.9873-.5819-.9873-1.29305z" fill="#f0f3fa"/><path d="m6.35995 8.25h.56243s-.16309-1.25-1.43368-1.25c-1.27058 0-1.3387.94147-1.3387 1.03882 0 .09734.04843.70341 1.21739 1.14126.56699.21244 1.03261.24324 1.03261.72988 0 .32114-.23856.57424-.8782.57424-.63963 0-.99247-.58512-.99247-.9842h-.52933s0 1.5 1.49979 1.5 1.49979-1.1776 1.49979-1.1776.05124-.65142-.98146-1.00248c-.97673-.33201-1.26812-.47692-1.26812-.81751s.29766-.50241.71669-.50241.79405.19523.89326.75z" fill="#f0f3fa"/><path d="m8.81818 8.75s-.81818.30345-.81818 1.0237c0 .7202.52457 1.2263 1.04898 1.2263s.76564-.1107 1.05932-.5l.5036.5.3881-.4185-.5455-.5815.2833-.781-.472-.16547-.1469.50606-.65289-.80959s.71579-.32901.71579-.91299-.40907-.83701-.88112-.83701c-.61886 0-1.02795.38308-1.02795.85644s.54545.89356.54545.89356zm.27275.25.81818 1.03s-.30305.47-.70346.47-.66018-.44-.66018-.73c0-.29001.25321-.61003.54546-.77zm.54544-1.07438c0 .25741-.42013.57426-.42013.57426s-.39806-.42575-.39806-.61385.17697-.38615.42021-.38615c.24325 0 .39798.16833.39798.42574z" fill="#f0f3fa"/></g></svg>

<!-- by TradingView --><svg width="18" height="18" viewBox="0 0 18 18" fill="none" xmlns="http://www.w3.org/2000/svg">
<rect width="18" height="18" fill="#F0F3FA"/>
<path fill-rule="evenodd" clip-rule="evenodd" d="M5.4946 6H12.5054C13.8774 6 15 7.34683 15 8.99277C15 10.6387 13.8773 11.9856 12.5054 11.9856H5.4946C4.12266 11.9856 3 10.6389 3 8.99286C3 7.34683 4.12257 6 5.4946 6Z" fill="#32609B"/>
<path fill-rule="evenodd" clip-rule="evenodd" d="M5.5 6C6.88073 6 8 7.34311 8 9C8 10.6569 6.88073 12 5.5 12C4.11927 12 3 10.6569 3 9C3 7.34311 4.11927 6 5.5 6Z" fill="#279857"/>
<path fill-rule="evenodd" clip-rule="evenodd" d="M12 7H12.5V9.69915C12.5 10.1396 12.6558 10.5 12.9921 10.5H13.0079C13.3442 10.5 13.5 10.1396 13.5 9.69915V7H14V9.70695C14 10.4181 13.5557 11 13.0127 11H12.9873C12.4443 11 12 10.4181 12 9.70695V7Z" fill="#F0F3FA"/>
<path fill-rule="evenodd" clip-rule="evenodd" d="M6.35995 8.25H6.92238C6.92238 8.25 6.75929 7 5.4887 7C4.21812 7 4.15 7.94147 4.15 8.03882C4.15 8.13616 4.19843 8.74223 5.36739 9.18008C5.93438 9.39252 6.4 9.42332 6.4 9.90996C6.4 10.2311 6.16144 10.4842 5.5218 10.4842C4.88217 10.4842 4.52933 9.89908 4.52933 9.5H4C4 9.5 4 11 5.49979 11C6.99958 11 6.99958 9.8224 6.99958 9.8224C6.99958 9.8224 7.05082 9.17098 6.01812 8.81992C5.04139 8.48791 4.75 8.343 4.75 8.00241C4.75 7.66182 5.04766 7.5 5.46669 7.5C5.88572 7.5 6.26074 7.69523 6.35995 8.25Z" fill="#F0F3FA"/>
<path fill-rule="evenodd" clip-rule="evenodd" d="M8.81818 8.75C8.81818 8.75 8 9.05345 8 9.7737C8 10.4939 8.52457 11 9.04898 11C9.57339 11 9.81462 10.8893 10.1083 10.5L10.6119 11L11 10.5815L10.4545 10L10.7378 9.219L10.2658 9.05353L10.1189 9.55959L9.46601 8.75C9.46601 8.75 10.1818 8.42099 10.1818 7.83701C10.1818 7.25303 9.77273 7 9.30068 7C8.68182 7 8.27273 7.38308 8.27273 7.85644C8.27273 8.3298 8.81818 8.75 8.81818 8.75ZM9.09093 9L9.90911 10.03C9.90911 10.03 9.60606 10.5 9.20565 10.5C8.80524 10.5 8.54547 10.06 8.54547 9.77C8.54547 9.47999 8.79868 9.15997 9.09093 9ZM9.63637 7.92562C9.63637 8.18303 9.21624 8.49988 9.21624 8.49988C9.21624 8.49988 8.81818 8.07413 8.81818 7.88603C8.81818 7.69793 8.99515 7.49988 9.23839 7.49988C9.48164 7.49988 9.63637 7.66821 9.63637 7.92562Z" fill="#F0F3FA"/>
</svg>
